X: 33387
T: Queer Fellow
R: hornpipe
M: 4/4
K: Gmajor
|:(3ABc|d2 d>ed>B (3cBA|G>DG>B d2 g>f|e>fg>e a>ge>c|A2 A2 A2 (3ABc|
d2 d>ed>B (3cBA|G>DG>B d2 g>f|e>fg>e d>B (3cBA|G2 G2 G2:|
|:B>d|g2 g2 g2 b>a|g>f (3gfe d4|B2 B>f e>dc>B A2 A2 A2 B>d|
g2 g2 g2 b>a|g>f (3gfe d2 g>f|e>fg>e d>B (3cBA|G2 G2 G2:|

